svg/device/dashboard_3_fill.svg

<?xml version="1.0" encoding="UTF-8"?>
<svg width="24px" height="24px" viewBox="0 0 24 24" version="1.1" xmlns="http://www.w3.org/2000/svg" xmlns:xlink="http://www.w3.org/1999/xlink">
    <title>dashboard_3_fill</title>
    <g id="页面-1" stroke="none" stroke-width="1" fill="none" fill-rule="evenodd">
        <g id="Device" transform="translate(-624.000000, -240.000000)">
            <g id="dashboard_3_fill" transform="translate(624.000000, 240.000000)">
                 <path d="M24,0 L24,24 L0,24 L0,0 L24,0 Z M12.5934901,23.257841 L12.5819402,23.2595131 L12.5108777,23.2950439 L12.4918791,23.2987469 L12.4918791,23.2987469 L12.4767152,23.2950439 L12.4056548,23.2595131 C12.3958229,23.2563662 12.3870493,23.2590235 12.3821421,23.2649074 L12.3780323,23.275831 L12.360941,23.7031097 L12.3658947,23.7234994 L12.3769048,23.7357139 L12.4804777,23.8096931 L12.4953491,23.8136134 L12.4953491,23.8136134 L12.5071152,23.8096931 L12.6106902,23.7357139 L12.6232938,23.7196733 L12.6232938,23.7196733 L12.6266527,23.7031097 L12.609561,23.275831 C12.6075724,23.2657013 12.6010112,23.2592993 12.5934901,23.257841 L12.5934901,23.257841 Z M12.8583906,23.1452862 L12.8445485,23.1473072 L12.6598443,23.2396597 L12.6498822,23.2499052 L12.6498822,23.2499052 L12.6471943,23.2611114 L12.6650943,23.6906389 L12.6699349,23.7034178 L12.6699349,23.7034178 L12.678386,23.7104931 L12.8793402,23.8032389 C12.8914285,23.8068999 12.9022333,23.8029875 12.9078286,23.7952264 L12.9118235,23.7811639 L12.8776777,23.1665331 C12.8752882,23.1545897 12.8674102,23.1470016 12.8583906,23.1452862 L12.8583906,23.1452862 Z M12.1430473,23.1473072 C12.1332178,23.1423925 12.1221763,23.1452606 12.1156365,23.1525954 L12.1099173,23.1665331 L12.0757714,23.7811639 C12.0751323,23.7926639 12.0828099,23.8018602 12.0926481,23.8045676 L12.108256,23.8032389 L12.3092106,23.7104931 L12.3186497,23.7024347 L12.3186497,23.7024347 L12.3225043,23.6906389 L12.340401,23.2611114 L12.337245,23.2485176 L12.337245,23.2485176 L12.3277531,23.2396597 L12.1430473,23.1473072 Z" id="MingCute" fill-rule="nonzero"></path>
                <path d="M12,2 C14.4017,2 16.6057,2.84669 18.3297,4.25786 L13.2934,9.29237 C12.9018,9.10495 12.4631,9 12,9 C10.3431,9 9,10.3431 9,12 C9,13.6569 10.3431,15 12,15 C13.6569,15 15,13.6569 15,12 C15,11.6140833 14.9270833,11.2451111 14.7943287,10.9062199 L14.7076,10.7066 L19.7421,5.67028 L19.7421,5.67028 C21.1533,7.3943 22,9.59827 22,12 C22,17.5228 17.5228,22 12,22 C6.47715,22 2,17.5228 2,12 C2,6.47715 6.47715,2 12,2 Z M5,11 L4.06189,11 C4.02104,11.3276 4,11.6613 4,12 C4,12.2258 4.00935111,12.4493778 4.02768889,12.6704074 L4.06189,13 L5,13 C5.55228,13 6,12.5523 6,12 C6,11.48715 5.61395571,11.0644908 5.11662025,11.0067275 L5,11 Z M19.9381,11 L19,11 C18.4477,11 18,11.4477 18,12 C18,12.51285 18.386027,12.9355092 18.8833761,12.9932725 L19,13 L19.9381,13 C19.979,12.6724 20,12.3387 20,12 C20,11.7742 19.9906667,11.5506222 19.9723259,11.3295926 L19.9381,11 Z M12,11 C12.5523,11 13,11.4477 13,12 C13,12.5523 12.5523,13 12,13 C11.4477,13 11,12.5523 11,12 C11,11.4477 11.4477,11 12,11 Z M7.09438,5.68012 C6.671804,6.008608 6.2830456,6.3785488 5.93420784,6.78383424 L5.68016,7.09433 L6.34314,7.75731 C6.73366,8.14783 7.36683,8.14783 7.75735,7.75731 C8.11783923,7.39682077 8.14556917,6.82959355 7.84053982,6.43729848 L7.75735,6.34309 L7.09438,5.68012 Z M12,4 C11.6613,4 11.3276,4.02104 11,4.06189 L11,5 C11,5.55228 11.4477,6 12,6 C12.5523,6 13,5.55228 13,5 L13,4.06189 C12.6724,4.02104 12.3387,4 12,4 Z" id="形状" fill="#09244B"></path>
            </g>
        </g>
    </g>
</svg>

<svg xmlns="http://www.w3.org/2000/svg" width="24" height="24"><g fill="none" fill-rule="evenodd"><path d="M24 0v24H0V0h24ZM12.593 23.258l-.011.002-.071.035-.02.004-.014-.004-.071-.035c-.01-.004-.019-.001-.024.005l-.004.01-.017.428.005.02.01.013.104.074.015.004.012-.004.104-.074.012-.016.004-.017-.017-.427c-.002-.01-.009-.017-.017-.018Zm.265-.113-.013.002-.185.093-.01.01-.003.011.018.43.005.012.008.007.201.093c.012.004.023 0 .029-.008l.004-.014-.034-.614c-.003-.012-.01-.02-.02-.022Zm-.715.002a.023.023 0 0 0-.027.006l-.006.014-.034.614c0 .012.007.02.017.024l.015-.002.201-.093.01-.008.004-.011.017-.43-.003-.012-.01-.01-.184-.092Z"/><path fill="#09244B" d="M12 2c2.402 0 4.606.847 6.33 2.258l-5.037 5.034a3 3 0 1 0 1.5 1.614l-.085-.2 5.034-5.036A9.959 9.959 0 0 1 22 12c0 5.523-4.477 10-10 10S2 17.523 2 12 6.477 2 12 2Zm-7 9h-.938a8.079 8.079 0 0 0-.034 1.67l.034.33H5a1 1 0 0 0 .117-1.993L5 11Zm14.938 0H19a1 1 0 0 0-.117 1.993L19 13h.938a8.069 8.069 0 0 0 .034-1.67l-.034-.33ZM12 11a1 1 0 1 1 0 2 1 1 0 0 1 0-2ZM7.094 5.68a8.048 8.048 0 0 0-1.16 1.104l-.254.31.663.663a1 1 0 0 0 1.498-1.32l-.084-.094-.663-.663ZM12 4c-.339 0-.672.021-1 .062V5a1 1 0 1 0 2 0v-.938A8.079 8.079 0 0 0 12 4Z"/></g></svg>
